X: 27472
T: Molly On The Shore
R: reel
M: 4/4
K: Gmajor
|GF|:DGGB d2 cA|d2 cA FGAF|DGGB d^cde|1 =fd=cd AGG^F:|2 =fd=cd AGGA||
dg (3gfg afgf|dfcf dfcf|dg (3gfg afgf|d=fcd AGGA|
dg (3gfg afgf|dfcf dfcf|(3bag (3agf gfde|=fdcA G2 G^F||
|:DGGB dcAG|D=FCF DFCF|DGGB d^cde|1 =fdcd AGG^F:|2 =fdcA AGGA||
g3 a fe^fa|gfga fdcf|gfga fgag|^fdcd AGGA||
g3 a fe^fa|gfga =f2 ga|(3_bag (3agf gfde|=fdcA G2||

